!!!OTL: Wiedersehen an der Bahre Ein Bursch' wollt' in die Fremde ziehn
!!!ARE: Europa, Mitteleuropa, Oesterreich, Ostmark, Burgenland
!!!YOR: 3, S. 86
!!    1930 aufgezeichnet
!!!SCT: Q0056M
!!!YEM: Copyright 1995, estate of Helmut Schaffrath.
**kern
*ICvox
*Ivox
*M2/4
*k[b-]
*F:
{8cc
=1
8.dd
16cc
8b-
8a
=2
8cc
8cc
8g}
{8cc
=3
8.dd
16cc
8b-
8a
=4
8cc
8g
8r}
{8cc
=5
8ff
8ee
8.gg
16ff
=6
8.ee
16dd
8ff}
{16cc
16ee
=7
8.ee
16dd
8.cc
16b-
=8
8b-
8a
8r}
{8cc
=9
8ff
8ee
8.gg
16ff
=10
8.ee
16dd
8ff}
{16cc
16ee
=11
8.ee
16dd
8.cc
16b-
=12
8b-
8a
8r}
==
!!!AGN: Ballade, Abschied, Enttaeuschung, Tod, Selbstmord
!!!ONB: ESAC (Essen Associative Code) Database: BALLADE
!!!AMT: simple duple
!!!AIN: vox
!!!EED: Helmut Schaffrath
!!!EEV: 1.0
*-
